icon-themes/breeze_svg/cmd/32/grafgamma.svg

<svg viewBox="0 0 32 32" xmlns="http://www.w3.org/2000/svg"><path d="m4 4v24h24v-24zm23 1v22h-22l5.345703-5.345703a8 8 0 0 1 -2.345703-5.654297 8 8 0 0 1 8-8 8 8 0 0 1 5.654297 2.345703zm-5.345703 5.345703-11.308594 11.308594a8 8 0 0 0 5.654297 2.345703 8 8 0 0 0 8-8 8 8 0 0 0 -2.345703-5.654297z" fill="#4d4d4d"/></svg>

<svg xmlns="http://www.w3.org/2000/svg" viewBox="0 0 32 32">
 <path 
     style="fill:#4d4d4d" 
     d="M 4 4 L 4 28 L 28 28 L 28 4 L 4 4 z M 27 5 L 27 27 L 5 27 L 10.345703 21.654297 A 8 8 0 0 1 8 16 A 8 8 0 0 1 16 8 A 8 8 0 0 1 21.654297 10.345703 L 27 5 z M 21.654297 10.345703 L 10.345703 21.654297 A 8 8 0 0 0 16 24 A 8 8 0 0 0 24 16 A 8 8 0 0 0 21.654297 10.345703 z "
     />
</svg>
